!!!OTL: Maria Magdalena - Ruf
!!!ARE: Europa, Mitteleuropa, Deutschland
!!!SCT: A0618
!!!YEM: Copyright 1995, estate of Helmut Schaffrath.
**kern
*ICvox
*Ivox
*M4/2
*k[b-e-]
*g:
{2g
=1
1b-
1cc
=2
1dd
1ffn
=3
2dd
2cc
2b-
2a
=4
1g}
{1g
=5
1dd
2dd
2ee
=6
1ffn
1gg
=7
1ffn
2r}
{2gg
=8
1gg
1gg
=9
1ffn
2ee-
2ee-
=10
2dd
2cc
1dd
=11
1cc}
{1ffn
=12
2ee-
2dd
1cc
=13
2b-
2cc
2b-
2a
=14
1.g}
==
!!!AGN: Romanze, Ballade, Lied, religioeses Lied
!! Beuttner 1602 II No. 8.
!!!ONB: ESAC (Essen Associative Code) Database: ALTDEU
!!!AMT: simple quadruple
!!!AIN: vox
!!!EED: Helmut Schaffrath
!!!EEV: 1.0
*-
